src/client/web-contents/img/common/badge/badge_status_11.svg

<svg height="32" viewBox="0 0 104 32" width="104" xmlns="http://www.w3.org/2000/svg"><g fill="none" fill-rule="evenodd"><rect fill="#e6f2fb" height="32" rx="4" width="104"/><path d="m24.02 11.52h-5.3c.62 1.86 3.4 3.06 6.08 3.32l-.9 1.64c-2.44-.28-5.3-1.7-6.34-3.4-.92 1.74-3.66 3.12-6.36 3.46l-.92-1.64c2.78-.32 5.54-1.5 6.14-3.38h-5.34v-1.62h12.94zm-5.48 13.3h-2.04v-5.54h-7v-1.62h16.1v1.62h-7.06zm-3.9-16.08v-1.64h5.8v1.64zm11.76 3.3v-1.62h9.4v1.62h-3.64c.08 2.48 2.04 4 4.08 4.56l-1.06 1.6c-1.4-.48-3.3-1.88-4.06-3.44-.6 1.62-2.44 3.34-4.28 3.94l-1.16-1.58c2.46-.8 4.28-2.62 4.38-5.08zm14.08-5.04v12.94h-2.06v-5.04h-2.88v-1.72h2.88v-6.18zm.38 17.3h-12.02v-5.46h2.08v3.82h9.94zm-12.3-15.08v-1.64h5.06v1.64zm32.32 3.56c0 2.7-2.56 4.58-6.48 4.58-3.86 0-6.44-1.88-6.44-4.58 0-2.68 2.58-4.58 6.44-4.58 3.92 0 6.48 1.9 6.48 4.58zm-2.1 0c0-1.72-1.72-2.88-4.38-2.88-2.62 0-4.36 1.16-4.36 2.88s1.74 2.88 4.36 2.88c2.64 0 4.38-1.16 4.38-2.88zm3.68 9.78h-16.1v-1.64h3.72v-3.1l2.08-.02v3.12h4.44v-3.12l2.06.02v3.1h3.8zm14.24 2.04h-11.98v-6.54h11.98zm-.06-16.84c0 2.38-.18 4.68-.56 6.42h2.68v1.66h-16.1v-1.66h11.46c.28-1.22.46-3.38.48-4.78h-9.88v-1.64zm-1.98 15.2v-3.3h-7.9v3.3zm13.12-3.76-1.2 1.48c-1.2-.76-2.76-2.66-3.24-4.36-.4 1.76-1.94 3.8-3.48 4.76l-1.28-1.38c2.36-1.56 3.78-4.16 3.78-7.68v-1.32h-3.14v-1.66h8.06v1.66h-2.92v1.26c0 3.54 1.42 6.08 3.42 7.24zm2.66 4.78h-1.92v-8.94h-2.44v-1.7h2.44v-5.98h1.92zm3.54.84h-1.96v-17.82h1.96z" fill="#178bce"/></g></svg>

<?xml version="1.0" encoding="UTF-8" standalone="no"?>
<svg width="104px" height="32px" viewBox="0 0 104 32" version="1.1" xmlns="http://www.w3.org/2000/svg" xmlns:xlink="http://www.w3.org/1999/xlink">
    <!-- Generator: Sketch 50.2 (55047) - http://www.bohemiancoding.com/sketch -->
    <title>graphic_badge_status_11</title>
    <desc>Created with Sketch.</desc>
    <defs></defs>
    <g id="Icon_Badge_Graphic" stroke="none" stroke-width="1" fill="none" fill-rule="evenodd">
        <g id="##Element/Badge/Status11">
            <rect id="Rectangle-2" fill="#E6F2FB" x="0" y="0" width="104" height="32" rx="4"></rect>
            <path d="M24.02,11.52 L18.72,11.52 C19.34,13.38 22.12,14.58 24.8,14.84 L23.9,16.48 C21.46,16.2 18.6,14.78 17.56,13.08 C16.64,14.82 13.9,16.2 11.2,16.54 L10.28,14.9 C13.06,14.58 15.82,13.4 16.42,11.52 L11.08,11.52 L11.08,9.9 L24.02,9.9 L24.02,11.52 Z M18.54,24.82 L16.5,24.82 L16.5,19.28 L9.5,19.28 L9.5,17.66 L25.6,17.66 L25.6,19.28 L18.54,19.28 L18.54,24.82 Z M14.64,8.74 L14.64,7.1 L20.44,7.1 L20.44,8.74 L14.64,8.74 Z M26.4,12.04 L26.4,10.42 L35.8,10.42 L35.8,12.04 L32.16,12.04 C32.24,14.52 34.2,16.04 36.24,16.6 L35.18,18.2 C33.78,17.72 31.88,16.32 31.12,14.76 C30.52,16.38 28.68,18.1 26.84,18.7 L25.68,17.12 C28.14,16.32 29.96,14.5 30.06,12.04 L26.4,12.04 Z M40.48,7 L40.48,19.94 L38.42,19.94 L38.42,14.9 L35.54,14.9 L35.54,13.18 L38.42,13.18 L38.42,7 L40.48,7 Z M40.86,24.3 L28.84,24.3 L28.84,18.84 L30.92,18.84 L30.92,22.66 L40.86,22.66 L40.86,24.3 Z M28.56,9.22 L28.56,7.58 L33.62,7.58 L33.62,9.22 L28.56,9.22 Z M60.88,12.78 C60.88,15.48 58.32,17.36 54.4,17.36 C50.54,17.36 47.96,15.48 47.96,12.78 C47.96,10.1 50.54,8.2 54.4,8.2 C58.32,8.2 60.88,10.1 60.88,12.78 Z M58.78,12.78 C58.78,11.06 57.06,9.9 54.4,9.9 C51.78,9.9 50.04,11.06 50.04,12.78 C50.04,14.5 51.78,15.66 54.4,15.66 C57.04,15.66 58.78,14.5 58.78,12.78 Z M62.46,22.56 L46.36,22.56 L46.36,20.92 L50.08,20.92 L50.08,17.82 L52.16,17.8 L52.16,20.92 L56.6,20.92 L56.6,17.8 L58.66,17.82 L58.66,20.92 L62.46,20.92 L62.46,22.56 Z M76.7,24.6 L64.72,24.6 L64.72,18.06 L76.7,18.06 L76.7,24.6 Z M76.64,7.76 C76.64,10.14 76.46,12.44 76.08,14.18 L78.76,14.18 L78.76,15.84 L62.66,15.84 L62.66,14.18 L74.12,14.18 C74.4,12.96 74.58,10.8 74.6,9.4 L64.72,9.4 L64.72,7.76 L76.64,7.76 Z M74.66,22.96 L74.66,19.66 L66.76,19.66 L66.76,22.96 L74.66,22.96 Z M87.78,19.2 L86.58,20.68 C85.38,19.92 83.82,18.02 83.34,16.32 C82.94,18.08 81.4,20.12 79.86,21.08 L78.58,19.7 C80.94,18.14 82.36,15.54 82.36,12.02 L82.36,10.7 L79.22,10.7 L79.22,9.04 L87.28,9.04 L87.28,10.7 L84.36,10.7 L84.36,11.96 C84.36,15.5 85.78,18.04 87.78,19.2 Z M90.44,23.98 L88.52,23.98 L88.52,15.04 L86.08,15.04 L86.08,13.34 L88.52,13.34 L88.52,7.36 L90.44,7.36 L90.44,23.98 Z M93.98,24.82 L92.02,24.82 L92.02,7 L93.98,7 L93.98,24.82 Z" id="추천-요금제" fill="#178BCE"></path>
        </g>
    </g>
</svg>
